src/assets/metronic/worbby/global/img/icon-3.svg

<svg xmlns="http://www.w3.org/2000/svg" width="80" height="80"><g fill="none" fill-rule="evenodd"><circle cx="53.5" cy="26.5" r="26.5" fill="#FFCB33"/><path fill="#1E2225" d="M38.866 51.396c7.524 0 11.376-3.96 11.376-9.036 0-4.14-2.88-6.48-6.336-6.948-.432-.072-.9-.108-1.368-.108l5.544-4.428c.792-.648 1.152-1.368 1.152-2.412v-.684c0-1.26-.72-1.98-1.98-1.98H32.602c-1.26 0-1.98.72-1.98 1.98v1.944c0 1.26.72 1.98 1.98 1.98h6.948l-4.392 3.24c-1.008.72-1.188 1.692-.54 2.736l.36.54c.612.972 1.44 1.188 2.592.972.576-.108 1.08-.144 1.62-.144 2.088 0 3.708 1.044 3.708 3.024 0 1.944-1.548 3.456-4.752 3.456-.972 0-2.268-.144-4.212-1.044-1.152-.576-2.052-.432-2.772.576l-1.044 1.44c-.72 1.008-.684 2.088.396 2.772 2.52 1.584 5.58 2.124 8.352 2.124z"/><path fill="#1E2225" d="M40 0C17.952 0 0 17.936 0 40s17.952 40 40 40 40-17.952 40-40S62.064 0 40 0zm0 74.352C21.056 74.352 5.648 58.944 5.648 40 5.648 21.056 21.056 5.648 40 5.648c18.944 0 34.336 15.408 34.336 34.352C74.352 58.944 58.944 74.352 40 74.352z"/></g></svg>

<?xml version="1.0" encoding="UTF-8"?>
<svg width="80px" height="80px" viewBox="0 0 80 80" version="1.1" xmlns="http://www.w3.org/2000/svg" xmlns:xlink="http://www.w3.org/1999/xlink">
    <!-- Generator: Sketch 41.2 (35397) - http://www.bohemiancoding.com/sketch -->
    <title>icon-3</title>
    <desc>Created with Sketch.</desc>
    <defs></defs>
    <g id="Desktop" stroke="none" stroke-width="1" fill="none" fill-rule="evenodd">
        <g id="Desktop-Home-Worbbior" transform="translate(-790.000000, -2911.000000)">
            <g id="icon-3" transform="translate(790.000000, 2911.000000)">
                <circle id="Oval-Copy" fill="#FFCB33" cx="53.5" cy="26.5" r="26.5"></circle>
                <path d="M38.866,51.396 C46.39,51.396 50.242,47.436 50.242,42.36 C50.242,38.22 47.362,35.88 43.906,35.412 C43.474,35.34 43.006,35.304 42.538,35.304 L48.082,30.876 C48.874,30.228 49.234,29.508 49.234,28.464 L49.234,27.78 C49.234,26.52 48.514,25.8 47.254,25.8 L32.602,25.8 C31.342,25.8 30.622,26.52 30.622,27.78 L30.622,29.724 C30.622,30.984 31.342,31.704 32.602,31.704 L39.55,31.704 L35.158,34.944 C34.15,35.664 33.97,36.636 34.618,37.68 L34.978,38.22 C35.59,39.192 36.418,39.408 37.57,39.192 C38.146,39.084 38.65,39.048 39.19,39.048 C41.278,39.048 42.898,40.092 42.898,42.072 C42.898,44.016 41.35,45.528 38.146,45.528 C37.174,45.528 35.878,45.384 33.934,44.484 C32.782,43.908 31.882,44.052 31.162,45.06 L30.118,46.5 C29.398,47.508 29.434,48.588 30.514,49.272 C33.034,50.856 36.094,51.396 38.866,51.396 Z" id="3" fill="#1E2225"></path>
                <path d="M40,0 C17.952,0 0,17.936 0,40 C0,62.064 17.952,80 40,80 C62.048,80 80,62.048 80,40 C80,17.952 62.064,0 40,0 Z M40,74.352 C21.056,74.352 5.648,58.944 5.648,40 C5.648,21.056 21.056,5.648 40,5.648 C58.944,5.648 74.336,21.056 74.336,40 C74.352,58.944 58.944,74.352 40,74.352 Z" id="Combined-Shape-Copy" fill="#1E2225"></path>
            </g>
        </g>
    </g>
</svg>
